X:15722
%11028
T:Mit Schwung - RheinlÃ¤nder - schottisch/schottische/scottish
B:nach: Alt EgerlÃ¤nder TÃ¤nze, E. Baumann
Z:abc transcription Simon Wascher
N:please mail errors to: simon.wascher@chello.at
M:2/4
L:1/16
K:Cmaj
EG^FG AGFG|cGECG,4|E2E2 D3C|C2B,2B,4|
DFEF GFEF|BGFDB,4|F2F2 E3D|D2C2C4|
EG^FG AGFG|cG
